X: 38
T:Missa Pro Defunctis / Sanctus
N: Derived from Jos0404e-Missa_Pro_Defunctis-Sanctus.krn
C: Josquin des Prez
%%abc-version 2.0
%%abcx-abcm2ps-target-version 5.9.1 (29 Sep 2008)
%%abc-creator hum2abc beta
%%abcx-conversion-date 2019/02/12 16:15:39
%%abc-edited-by Jesse Rodin
%%abc-edited-by Will Watson 08/06/2011
%%abcx-initial-encoding-date 2012/01/21/
%%humdrum-veritas 3346289859
%%humdrum-veritas-data 2746685424
%%linebreak <none>
%%barnumbers 0
L: 1/4
M: 2/1
Q: 1/2=120
V: 1 clef=treble
V: 2 clef=treble-8
V: 3 clef=treble-8
V: 4 clef=treble-8
V: 5 clef=treble-8
V: 6 clef=bass
K: C
[V:1] A8- | 
[V:2] A8 | 
[V:3] z8 | 
[V:4] z8 | 
[V:5] z8 | 
[V:6] A,8 | 
[V:1] A8 | 
[V:2] c4d4 | 
[V:3] A8 | 
[V:4] z8 | 
[V:5] z8 | 
[V:6] F,4D,4 | 
[V:1] A8- | 
[V:2] e4A4- | 
[V:3] c6BA | 
[V:4] z8 | 
[V:5] z8 | 
[V:6] A,8 | 
[V:1] A8 | 
[V:2] A2B2c4 | 
[V:3] e4A4 | 
[V:4] z8 | 
[V:5] z8 | 
[V:6] A,,8 | 
[V:1] A8- | 
[V:2] F3GADd2- | 
[V:3] A3GFEF2- | 
[V:4] z8 | 
[V:5] z8 | 
[V:6] D,8 | 
[V:1] A8 | 
[V:2] d2cBc4- | 
[V:3] F2EDE4 | 
[V:4] z8 | 
[V:5] z8 | 
[V:6] A,,8 | 
[V:1] A8- | 
[V:2] c2F2c4 | 
[V:3] z4A3G | 
[V:4] z8 | 
[V:5] F8 | 
[V:6] A,3G,F,E,F,2- | 
[V:1] A8 | 
[V:2] A3Bc2d2 | 
[V:3] FEF3ED2 | 
[V:4] z8 | 
[V:5] F4F4 | 
[V:6] F,2D,2A,4 | 
[V:1] z8 | 
[V:2] e8 | 
[V:3] C6c2- | 
[V:4] c8 | 
[V:5] G4E4 | 
[V:6] z8 | 
[V:1] z8 | 
[V:2] c4f4- | 
[V:3] cBA3GFE | 
[V:4] c4c4 | 
[V:5] F3GA_BA2- | 
[V:6] A,3G,F,E,F,2- | 
[V:1] z8 | 
[V:2] f4e4- | 
[V:3] D4z2G2 | 
[V:4] d4B4 | 
[V:5] A2GFG4 | 
[V:6] F,2D,2E,4 | 
[V:1] A8 | 
[V:2] e4c4 | 
[V:3] E2A3Gc2- | 
[V:4] c3defe2- | 
[V:5] A8- | 
[V:6] A,,4z2A,2- | 
[V:1] A4A4 | 
[V:2] f8 | 
[V:3] cBAGA3B | 
[V:4] e2dcd4 | 
[V:5] A8 | 
[V:6] A,G,F,E,F,2D,2 | 
[V:1] A8 | 
[V:2] e3dcBc2- | 
[V:3] c3BAGA2- | 
[V:4] e8- | 
[V:5] z8 | 
[V:6] A,8 | 
[V:1] A4A4- | 
[V:2] cAd4^c2 | 
[V:3] A2GFE4 | 
[V:4] e8 | 
[V:5] z8 | 
[V:6] A,,8 | 
[V:1] A4A4 | 
[V:2] d4z2d2- | 
[V:3] F4E2F2- | 
[V:4] z8 | 
[V:5] z4A4- | 
[V:6] D,4C,2D,2- | 
[V:1] A8 | 
[V:2] defde2f2- | 
[V:3] FDd4c2 | 
[V:4] z8 | 
[V:5] A4A4 | 
[V:6] D,C,D,C,/B,,/A,,4 | 
[V:1] z4G4 | 
[V:2] fdg3fed | 
[V:3] d3Bcde2- | 
[V:4] z4e4- | 
[V:5] B4G4 | 
[V:6] z2G,,2C,4- | 
[V:1] c6B2 | 
[V:2] c3de4 | 
[V:3] edcBc4 | 
[V:4] e4e4 | 
[V:5] A8 | 
[V:6] C,4A,,4 | 
[V:1] A3GFEA2- | 
[V:2] A8 | 
[V:3] d4z2D2 | 
[V:4] f4B4 | 
[V:5] F8 | 
[V:6] D,4F,4 | 
[V:1] A2^G^FG4 | 
[V:2] B8 | 
[V:3] G3AB4 | 
[V:4] e8 | 
[V:5] z8 | 
[V:6] E,8 | 
[V:1] A8 | 
[V:2] z4c4 | 
[V:3] A8 | 
[V:4] c8 | 
[V:5] z8 | 
[V:6] z4A,4 | 
[V:1] z8 | 
[V:2] d4e4 | 
[V:3] z8 | 
[V:4] z8 | 
[V:5] z8 | 
[V:6] G,4E,4 | 
[V:1] z8 | 
[V:2] e6dc | 
[V:3] c8 | 
[V:4] z8 | 
[V:5] A6A2 | 
[V:6] z4A,4 | 
[V:1] z8 | 
[V:2] g8 | 
[V:3] d4e4 | 
[V:4] z8 | 
[V:5] B4G4 | 
[V:6] G,3F,E,2D,2 | 
[V:1] z8 | 
[V:2] z4c4- | 
[V:3] e3dcBA2- | 
[V:4] e6e2 | 
[V:5] A8 | 
[V:6] C,2B,,2A,,4 | 
[V:1] F8 | 
[V:2] c2d2f4 | 
[V:3] A2D3EF2 | 
[V:4] f4d4 | 
[V:5] F8 | 
[V:6] z2A,2A,2A,2 | 
[V:1] G4A4 | 
[V:2] e4c4 | 
[V:3] C2c2A3B | 
[V:4] e8 | 
[V:5] z8 | 
[V:6] C6B,2 | 
[V:1] A4A4- | 
[V:2] z4A4- | 
[V:3] c6c2 | 
[V:4] c8 | 
[V:5] F8 | 
[V:6] A,3G,F,2E,2 | 
[V:1] A4A4 | 
[V:2] A4A4 | 
[V:3] d4d4 | 
[V:4] z8 | 
[V:5] F4D4 | 
[V:6] D,6C,B,, | 
[V:1] A4A4 | 
[V:2] c8 | 
[V:3] e4z2c2 | 
[V:4] c8 | 
[V:5] C4F4- | 
[V:6] A,,4A,4- | 
[V:1] A8 | 
[V:2] F3GA2D2 | 
[V:3] A3Bc2d2 | 
[V:4] c4A4 | 
[V:5] F4F4 | 
[V:6] A,2G,2F,3E, | 
[V:1] _B4A2G2 | 
[V:2] d4c3d | 
[V:3] _B4c4 | 
[V:4] G4c4- | 
[V:5] z8 | 
[V:6] G,4C,4 | 
[V:1] A4G4 | 
[V:2] e2f4e2 | 
[V:3] C4c3B | 
[V:4] c4c4 | 
[V:5] z8 | 
[V:6] z4C,4 | 
[V:1] F8- | 
[V:2] f4c4 | 
[V:3] A3GF2E2 | 
[V:4] z8 | 
[V:5] F8 | 
[V:6] C3B,A,2G,2 | 
[V:1] F8 | 
[V:2] d8 | 
[V:3] DCc4B2 | 
[V:4] z8 | 
[V:5] F4F4 | 
[V:6] F,2E,2D,4 | 
[V:1] z8 | 
[V:2] e8 | 
[V:3] c8 | 
[V:4] c8 | 
[V:5] G8 | 
[V:6] C,8 | 
[V:1] F8 | 
[V:2] z8 | 
[V:3] F3GA4 | 
[V:4] c4c4 | 
[V:5] A4F4 | 
[V:6] z8 | 
[V:1] G8 | 
[V:2] z4d4 | 
[V:3] G8 | 
[V:4] d8 | 
[V:5] _B8 | 
[V:6] z4G,4 | 
[V:1] A6A2 | 
[V:2] c4c4 | 
[V:3] z4F4 | 
[V:4] e4c4 | 
[V:5] A8- | 
[V:6] C3B,A,3G, | 
[V:1] A2A2A3G | 
[V:2] A2A2d4 | 
[V:3] F2G2A2B2 | 
[V:4] f8 | 
[V:5] A8- | 
[V:6] F,2E,2D,4 | 
[V:1] A8- | 
[V:2] c8- | 
[V:3] c2A4GF | 
[V:4] e8- | 
[V:5] A8- | 
[V:6] A,,8- | 
[V:1] A8 ||  
[V:2] c8 ||  
[V:3] E8 ||  
[V:4] e8 ||  
[V:5] A8 ||  
[V:6] A,,8 ||  
[V:1]  [K:C] [K:clef=treble][M:2/1]z8 | 
[V:2]  [K:C] [K:clef=treble-8][M:2/1]e8 | 
[V:3]  [K:C] [K:clef=treble-8][M:2/1]A8- | 
[V:4]  [K:C] [K:clef=treble-8][M:2/1]z8 | 
[V:5]  [K:C] [K:clef=treble-8][M:2/1]z8 | 
[V:6]  [K:C] [K:clef=bass][M:2/1]A,,8 | 
[V:1] z8 | 
[V:2] e4f4- | 
[V:3] A8 | 
[V:4] z8 | 
[V:5] z8 | 
[V:6] C,4D,4- | 
[V:1] z8 | 
[V:2] f2e2d4- | 
[V:3] _B4_B4 | 
[V:4] z8 | 
[V:5] z8 | 
[V:6] D,2G,,2G,,4 | 
[V:1] A8- | 
[V:2] d2cBA2d2 | 
[V:3] A3GFEA2- | 
[V:4] z8 | 
[V:5] z8 | 
[V:6] D,8 | 
[V:1] A8 | 
[V:2] c2d3c/B/A2 | 
[V:3] AGFED2d2- | 
[V:4] z8 | 
[V:5] z8 | 
[V:6] F,8 | 
[V:1] _B8 | 
[V:2] G2g3fd2- | 
[V:3] dc_BAGA_Bc | 
[V:4] z8 | 
[V:5] z8 | 
[V:6] G,8 | 
[V:1] A4A4- | 
[V:2] def3ed2 | 
[V:3] d3c/_B/A2F2- | 
[V:4] z8 | 
[V:5] z8 | 
[V:6] D,8 | 
[V:1] A2GFG4 | 
[V:2] c2f4e2 | 
[V:3] FED2C4 | 
[V:4] z8 | 
[V:5] z8 | 
[V:6] z8 | 
[V:1] z8 | 
[V:2] f4F4 | 
[V:3] z2A2_B4- | 
[V:4] z8 | 
[V:5] z8 | 
[V:6] D,8- | 
[V:1] z8 | 
[V:2] z2A2_B4- | 
[V:3] B2A2F4 | 
[V:4] z8 | 
[V:5] z8 | 
[V:6] D,8 | 
[V:1] z8 | 
[V:2] B2_B/A/G/F/G4 | 
[V:3] G4_B4- | 
[V:4] z8 | 
[V:5] z8 | 
[V:6] _E,8 | 
[V:1] z4A4 | 
[V:2] F4f4- | 
[V:3] B2AGA2D2 | 
[V:4] z8 | 
[V:5] z8 | 
[V:6] D,4D,4- | 
[V:1] _B4G2A2- | 
[V:2] f2ede4 | 
[V:3] d4c4 | 
[V:4] z8 | 
[V:5] z8 | 
[V:6] D,2_B,,2C,4 | 
[V:1] AGFED2A2- | 
[V:2] d2f3edc | 
[V:3] A8 | 
[V:4] z8 | 
[V:5] F8 | 
[V:6] D,6F,2- | 
[V:1] AGFEF2F2 | 
[V:2] d2c4B2 | 
[V:3] z8 | 
[V:4] z8 | 
[V:5] F4F4 | 
[V:6] F,E,D,C,D,4 | 
[V:1] E8 | 
[V:2] c4z2G2 | 
[V:3] z8 | 
[V:4] z8 | 
[V:5] G4E4 | 
[V:6] C,8 | 
[V:1] z8 | 
[V:2] A4G2g2- | 
[V:3] z2F2E2C2 | 
[V:4] c8 | 
[V:5] F4G4 | 
[V:6] z8 | 
[V:1] z8 | 
[V:2] g2fef4 | 
[V:3] F3GA2F2 | 
[V:4] c4c4 | 
[V:5] A8 | 
[V:6] z8 | 
[V:1] D8 | 
[V:2] g4z2G2 | 
[V:3] _BAGFG4 | 
[V:4] d4_B4 | 
[V:5] G8 | 
[V:6] z8 | 
[V:1] F8 | 
[V:2] A8 | 
[V:3] F8 | 
[V:4] c4d4 | 
[V:5] z8 | 
[V:6] z4z2F,2 | 
[V:1] G8 | 
[V:2] G8 | 
[V:3] z2c2G2c2- | 
[V:4] e8 | 
[V:5] z8 | 
[V:6] E,2C,2E,3F, | 
[V:1] G4G4 | 
[V:2] z4d4 | 
[V:3] c2BAB4 | 
[V:4] d8 | 
[V:5] z8 | 
[V:6] G,8 | 
[V:1] A8- | 
[V:2] f4c2f2- | 
[V:3] c4A4 | 
[V:4] z8 | 
[V:5] F8 | 
[V:6] F,8 | 
[V:1] A8 | 
[V:2] fed2c2d2 | 
[V:3] z8 | 
[V:4] z8 | 
[V:5] F4F4 | 
[V:6] z4z2F,2 | 
[V:1] G4A4- | 
[V:2] e8 | 
[V:3] z2c2c3B | 
[V:4] z8 | 
[V:5] G4E4 | 
[V:6] E,2C,3B,,A,,G,, | 
[V:1] A2GAG4- | 
[V:2] z4e4 | 
[V:3] A2F2c4 | 
[V:4] c8 | 
[V:5] F4G4 | 
[V:6] F,,2F,2E,2C,2 | 
[V:1] G2FEF4 | 
[V:2] f8 | 
[V:3] z8 | 
[V:4] c4c4 | 
[V:5] A8 | 
[V:6] F,3G,A,2F,2 | 
[V:1] G8- | 
[V:2] d4e4- | 
[V:3] z2G3FED | 
[V:4] d4_B4 | 
[V:5] G8- | 
[V:6] _B,3A,G,3F, | 
[V:1] G8- | 
[V:2] e4d4 | 
[V:3] C2c4B2 | 
[V:4] c4d4 | 
[V:5] G8- | 
[V:6] E,2C,2G,4 | 
[V:1] G8- | 
[V:2] c8 | 
[V:3] c2CDEFG2- | 
[V:4] e8 | 
[V:5] G8- | 
[V:6] C,8 | 
[V:1] G8- | 
[V:2] B8- | 
[V:3] G2D2G4 | 
[V:4] d8- | 
[V:5] G8- | 
[V:6] G,,8- | 
[V:1] G8 |]  
[V:2] B8 |]  
[V:3] D8 |]  
[V:4] d8 |]  
[V:5] G8 |]  
[V:6] G,,8 |]  



